app/assets/v2/images/mission/interact/goal.svg

<svg viewBox="0 0 62.33 62.33" xmlns="http://www.w3.org/2000/svg"><path d="m39.74 61.08h-34.12v-6.63l14.14-14.14 10.11 10.12c.67.67 9.87 10.65 9.87 10.65z" fill="#00ed92"/><path d="m28.9 44.59-10.11-10.11a1.74 1.74 0 0 0 -1.22-.5 1.72 1.72 0 0 0 -1.21.5l-15.86 15.86a1.72 1.72 0 0 0 -.5 1.21v9.06a1.72 1.72 0 0 0 1.72 1.72h58.89a1.72 1.72 0 0 0 1.72-1.72v-27.18a1.7 1.7 0 0 0 -.5-1.21l-8.56-8.56v-21.94a1.72 1.72 0 0 0 -1.72-1.72h-15.85a1.72 1.72 0 0 0 -1.12 3l15.26 13.1v7.56zm11.43-41.15h9.51v8.13zm11.22 23.36 7.35 7.34v24.76h-55.46v-6.64l14.14-14.13 10.11 10.11a1.72 1.72 0 0 0 2.43 0z" fill="#180041"/></svg>

<svg xmlns="http://www.w3.org/2000/svg" viewBox="0 0 62.33 62.33"><g data-name="Layer 2"><path d="M39.74 61.08H5.62v-6.63l14.14-14.14 10.11 10.12c.67.67 9.87 10.65 9.87 10.65z" fill="#00ed92"/><path d="M28.9 44.59L18.79 34.48a1.74 1.74 0 0 0-1.22-.5 1.72 1.72 0 0 0-1.21.5L.5 50.34a1.72 1.72 0 0 0-.5 1.21v9.06a1.72 1.72 0 0 0 1.72 1.72h58.89a1.72 1.72 0 0 0 1.72-1.72V33.43a1.7 1.7 0 0 0-.5-1.21l-8.56-8.56V1.72A1.72 1.72 0 0 0 51.55 0H35.7a1.72 1.72 0 0 0-1.12 3l15.26 13.1v7.56zM40.33 3.44h9.51v8.13zM51.55 26.8l7.35 7.34V58.9H3.44v-6.64l14.14-14.13 10.11 10.11a1.72 1.72 0 0 0 2.43 0z" fill="#180041"/></g></svg>
